assets/features/channel/europe-and-america/ideal.svg

<svg width="80" height="80" viewBox="0 0 80 80" fill="none" xmlns="http://www.w3.org/2000/svg">
<rect x="0.5" y="0.5" width="79" height="79" rx="7.5" fill="white"/>
<rect x="0.5" y="0.5" width="79" height="79" rx="7.5" stroke="#EEEEEE"/>
<path d="M16 18.7998V61.1138H40.6695C56.943 61.1138 64 52.0003 64 39.9154C64 27.8774 56.943 18.7998 40.6695 18.7998H16Z" fill="white"/>
<path d="M18.666 21.4688H40.6725C55.609 21.4688 61.3341 29.6254 61.3341 39.9148C61.3341 52.2528 53.3392 58.4436 40.6725 58.4436H18.666V21.4688ZM20.7994 23.6022V56.3115H40.6725C52.6707 56.3115 59.1988 50.7207 59.1988 39.9148C59.1988 28.8095 52.1222 23.6015 40.6725 23.6015H20.7994V23.6022Z" fill="black"/>
<path d="M23.4651 42.3198H29.8268V53.6423H23.4651V42.3198Z" fill="black"/>
<path d="M26.6461 40.5686C28.8297 40.5686 30.5999 38.7985 30.5999 36.6149C30.5999 34.4313 28.8297 32.6611 26.6461 32.6611C24.4625 32.6611 22.6924 34.4313 22.6924 36.6149C22.6924 38.7985 24.4625 40.5686 26.6461 40.5686Z" fill="black"/>
<path d="M43.168 38.4647V40.2981H38.6351V32.9411H43.0232V34.7738H40.4678V35.6256H42.8843V37.459H40.4678V38.4654L43.168 38.4647ZM43.9611 40.2994L46.1793 32.9385H48.7869L51.0044 40.2994H49.0967L48.6806 38.8756H46.283L45.8663 40.2994H43.9611ZM46.8205 37.0442H48.1471L47.5385 34.9649H47.4277L46.8205 37.0442ZM51.926 32.9391H53.7601V38.4654H56.4746C55.7298 28.4382 47.8431 26.2715 40.6726 26.2715H33.0306V32.943H34.1615C36.2239 32.943 37.5042 34.3414 37.5042 36.5915C37.5042 38.9134 36.2545 40.2994 34.1615 40.2994H33.0306V53.6477H40.6733C52.3258 53.6477 56.3839 48.2356 56.5274 40.2981H51.926V32.9391ZM33.0293 34.7758V38.4654H34.1615C34.9462 38.4654 35.6714 38.2384 35.6714 36.5909C35.6714 34.9819 34.8646 34.7758 34.1615 34.7758H33.0293Z" fill="#D50072"/>
</svg>

<svg xmlns="http://www.w3.org/2000/svg" width="80" height="80" fill="none" viewBox="0 0 80 80"><rect width="79" height="79" x=".5" y=".5" fill="#fff" rx="7.5"/><rect width="79" height="79" x=".5" y=".5" stroke="#eee" rx="7.5"/><path fill="#fff" d="M16 18.8v42.314h24.67C56.942 61.114 64 52 64 39.915 64 27.877 56.943 18.8 40.67 18.8z"/><path fill="#000" d="M18.666 21.469h22.007c14.936 0 20.661 8.156 20.661 18.446 0 12.338-7.995 18.529-20.662 18.529H18.667zm2.133 2.133v32.71h19.874c11.998 0 18.526-5.591 18.526-16.397 0-11.105-7.077-16.313-18.526-16.313z"/><path fill="#000" d="M23.465 42.32h6.362v11.322h-6.362zm3.181-1.751a3.954 3.954 0 1 0 0-7.908 3.954 3.954 0 0 0 0 7.908"/><path fill="#d50072" d="M43.168 38.465v1.833h-4.533v-7.357h4.388v1.833h-2.555v.852h2.416v1.833h-2.416v1.006zm.793 1.834 2.218-7.36h2.608l2.217 7.36h-1.907l-.416-1.423h-2.398l-.417 1.423zm2.86-3.255h1.326l-.608-2.08h-.111zm5.105-4.105h1.834v5.526h2.715c-.745-10.027-8.632-12.194-15.802-12.194H33.03v6.672h1.13c2.063 0 3.343 1.398 3.343 3.649 0 2.321-1.25 3.707-3.343 3.707h-1.13v13.349h7.642c11.653 0 15.71-5.412 15.854-13.35h-4.601zm-18.897 1.837v3.69h1.132c.785 0 1.51-.228 1.51-1.875 0-1.61-.806-1.815-1.51-1.815z"/></svg>
